X:201
T:The Apeave (Opera?) Hornpipe
O:No 201 Page 99 William Clarke of Feltwell
M:2/4
L:1/8
K:D
A>ce>a|g>fe>f|e>dc>B|c>de2|A>ce>a|g>fe>d|c>BA>^GA2A2::A>ce>a|(f/g/a) (f/g/a)|e>ee>e|B2B2|A>ce>a|(f/g/a) (f/g/a)|e>dc>B|A2A2:|

